X:237
%%etbk:tnset id:74,pos:2,rep:3x,ant:
%%etbk:wsite http://www.thesession.org/tunes/display/5199
%%etbk:pldat 2015-04-21T15:25,2015-03-26T18:12,2014-04-08T17:23,2014-03-27T17:59,2014-02-16T14:23,2014-02-05T16:06,2013-12-11T16:27,2013-10-07T18:52,2013-08-29T16:56,2013-08-27T18:13,2013-05-12T18:46
T: The Frost Is All Over
T: Lisdoonvarna, The
Z: Piano Box Version by Martin Fleischmann
H: Created 2013-02-19 /  Last Modified 2013-02-19
M: 6/8
L: 1/8
R: jig
K: Dmaj
|:!3!d2 !5!f !4!e!3!d!2!B | !1!A!3!F!1!D !2!EE!1!D | !2!F2!4!A A!2!F!1!A | !2!B!4!ee !4!e!3!d!2!B |
!3!def edB | AFD EED | F2A AF!1!A  |1 !2!B!3!dd d2 :|2 !2!B!3!dd !3!d2!4!e ||
|:!3!fff afd| !3!ggg !5!b!4!a!3!g | !3!fef afd | !4!gfg !2!e2 e |
!3!fdf afd | !3!gdg ba!3!g | !3!faf ede | fdd d2 :||


